logo/galliumos.svg

<?xml version="1.0" encoding="UTF-8"?>
<svg width="256px" height="256px" viewBox="0 0 256 256" version="1.1" xmlns="http://www.w3.org/2000/svg" xmlns:xlink="http://www.w3.org/1999/xlink" preserveAspectRatio="xMidYMid">
	<g>
		<path d="M169.533,127.998 C169.533,128.667 169.515,129.327 169.482,129.988 C169.479,130.045 169.471,130.104 169.469,130.162 L169.53,130.453 L256,255.884 L256,255.998 L256,241.875 L256,239.686 L165.25,106.686 C164.909,106.084 163.398,105.947 163.023,105.368 L162.912,105.189 L162.908,105.192 C161.508,103.068 159.876,101.116 158.053,99.356 C165.158,106.808 169.533,116.888 169.533,127.998 L169.533,127.998 Z" fill="#68A5C6"></path>
		<path d="M128.001,169.533 C127.331,169.533 126.671,169.515 126.009,169.483 C125.954,169.479 125.895,169.473 125.838,169.469 L121.001,171.352 L3.833,251.187 L0,256.001 L14.127,256.001 L18.834,254.02 L145.334,168.52 L148.86,164.101 C149.462,163.758 150.054,163.4 150.632,163.022 L150.812,162.913 L150.81,162.907 C152.933,161.509 154.887,159.877 156.645,158.054 C149.193,165.162 139.112,169.533 128.001,169.533 L128.001,169.533 Z" fill="#98B7D4"></path>
		<path d="M0,14.127 L1.666,19.185 L88.001,146.852 L91.9,148.86 C92.243,149.462 92.601,150.054 92.979,150.636 L93.088,150.815 L93.094,150.812 C94.492,152.935 96.124,154.887 97.947,156.648 C90.839,149.197 86.468,139.115 86.468,128.004 C86.468,127.335 86.486,126.673 86.518,126.013 C86.522,125.957 86.528,125.897 86.532,125.842 L85.167,121.02 L4.167,2.353 L0,-5.68434189e-14 L0,14.127 L0,14.127 Z" fill="#347294"></path>
		<path d="M241.874,0.001 L236.834,1.853 L110,87.353 L107.14,91.903 C106.539,92.244 105.947,92.602 105.368,92.979 L105.189,93.089 L105.191,93.093 C103.068,94.493 101.114,96.124 99.356,97.948 C106.807,90.84 116.889,86.468 128,86.468 C128.669,86.468 129.33,86.486 129.991,86.519 C130.047,86.522 130.106,86.529 130.162,86.532 L134,85.519 L252.167,4.686 L256,0.001 L241.874,0.001 L241.874,0.001 Z" fill="#5089AF"></path>
		<path d="M0,256.001 L125.836,169.475 C115.739,168.954 106.6,164.831 99.671,158.363 C99.077,157.81 98.506,157.232 97.945,156.644 C96.121,154.887 94.49,152.933 93.091,150.81 L93.086,150.812 L92.976,150.632 C92.6,150.054 92.241,149.462 91.898,148.86 L0,14.127 L0,256.001 L0,256.001 Z" fill="#367BA0"></path>
		<path d="M0,-5.68434189e-14 L86.529,125.836 C87.049,115.739 91.173,106.601 97.638,99.672 C98.191,99.078 98.77,98.506 99.356,97.945 C101.115,96.121 103.068,94.49 105.191,93.092 L105.189,93.086 L105.368,92.976 C105.948,92.599 106.539,92.241 107.14,91.898 L241.874,-5.68434189e-14 L0,-5.68434189e-14 L0,-5.68434189e-14 Z" fill="#5495BF"></path>
		<path d="M130.165,86.529 C140.262,87.049 149.4,91.173 156.329,97.64 C156.923,98.195 157.495,98.772 158.056,99.359 C159.88,101.116 161.511,103.07 162.909,105.194 L162.915,105.191 L163.025,105.371 C163.402,105.949 163.76,106.541 164.103,107.143 L256.001,241.877 L256.001,-5.68434189e-14 L130.165,86.529 L130.165,86.529 Z" fill="#71B6DB"></path>
		<path d="M158.363,156.33 C157.809,156.924 157.233,157.495 156.645,158.056 C154.888,159.88 152.933,161.511 150.809,162.91 L150.812,162.915 L150.632,163.025 C150.055,163.402 149.462,163.76 148.86,164.103 L14.126,256.001 L256,256.001 L169.474,130.165 C168.955,140.262 164.83,149.401 158.363,156.33 L158.363,156.33 Z" fill="#A5C8E8"></path>
	</g>
</svg>

<svg viewBox="0 0 256 256" xmlns="http://www.w3.org/2000/svg"><path fill="#68A5C6" d="M169.533 127.99c0 .66-.02 1.32-.06 1.99 -.01.05-.02.11-.02.17l.06.29 86.47 125.43v.11 -14.13 -2.19l-90.75-133c-.35-.61-1.86-.74-2.23-1.32l-.12-.18 -.01 0c-1.4-2.13-3.04-4.08-4.86-5.84 7.1 7.45 11.48 17.53 11.48 28.64v0Z"/><path fill="#98B7D4" d="M128.001 169.53c-.67 0-1.33-.02-2-.05 -.06-.01-.12-.01-.18-.02l-4.84 1.88L3.81 251.17l-3.84 4.81h14.12l4.7-1.99 126.5-85.5 3.52-4.42c.6-.35 1.19-.71 1.77-1.08l.18-.11 -.01-.01c2.12-1.4 4.07-3.03 5.83-4.86 -7.46 7.1-17.54 11.47-28.65 11.47v0Z"/><path fill="#347294" d="M0 14.12l1.66 5.058 86.33 127.66 3.89 2c.34.6.7 1.19 1.07 1.77l.1.17 0-.01c1.39 2.12 3.03 4.07 4.85 5.83 -7.11-7.46-11.48-17.54-11.48-28.65 0-.67.01-1.34.05-2 0-.06.01-.12.01-.18l-1.37-4.83L4.11 2.27 -.06-.09v14.12 0Z"/><path fill="#5089AF" d="M241.874 0l-5.04 1.852L110 87.352l-2.86 4.55c-.61.34-1.2.69-1.78 1.07l-.18.11 0 0c-2.13 1.4-4.08 3.03-5.84 4.85 7.45-7.11 17.533-11.48 28.64-11.48 .66 0 1.33.01 1.99.05 .05 0 .11.01.17.01l3.83-1.02L252.137 4.65l3.83-4.69h-14.13v0Z"/><path fill="#367BA0" d="M0 256.001l125.836-86.53c-10.1-.53-19.24-4.65-26.17-11.12 -.6-.56-1.17-1.14-1.73-1.72 -1.83-1.76-3.46-3.72-4.86-5.84l-.01 0 -.11-.18c-.38-.58-.74-1.17-1.08-1.78L-.03 14.09v241.87 0Z"/><path fill="#5495BF" d="M0-.001l86.529 125.83c.52-10.1 4.64-19.235 11.1-26.17 .55-.6 1.13-1.17 1.71-1.73 1.75-1.83 3.71-3.46 5.83-4.86l-.01-.01 .17-.11c.58-.38 1.17-.74 1.77-1.08L241.82-.04H-.06v0Z"/><path fill="#71B6DB" d="M130.16 86.529c10.09.52 19.23 4.64 26.16 11.11 .59.55 1.16 1.13 1.72 1.71 1.82 1.75 3.45 3.71 4.85 5.83l0-.01 .11.18c.37.57.73 1.17 1.07 1.77l91.89 134.734V-.03L130.12 86.49v0Z"/><path fill="#A5C8E8" d="M158.363 156.33c-.56.59-1.13 1.16-1.72 1.72 -1.76 1.82-3.72 3.45-5.84 4.85l0 0 -.18.11c-.58.37-1.17.73-1.78 1.07L14.1 255.97h241.87l-86.53-125.84c-.52 10.09-4.65 19.23-11.12 26.16v0Z"/></svg>
